Origami/64x64/apps/qpdfview.svg

<svg width="64" height="64" version="1" xmlns="http://www.w3.org/2000/svg">
 <path d="m54 56v-50c0-1.662-1.338-3-3-3h-38c-1.662 0-3 1.338-3 3v50c0 1.662 1.338 3 3 3h38c1.662 0 3-1.338 3-3z" style="fill:#cccccc"/>
 <path d="m10 56v1c0 1.662 1.338 3 3 3h38c1.662 0 3-1.338 3-3v-1c0 1.662-1.338 3-3 3h-38c-1.662 0-3-1.338-3-3z" style="opacity:.2"/>
 <path d="m13 3c-1.662 0-3 1.338-3 3v1c0-1.662 1.338-3 3-3h38c1.662 0 3 1.338 3 3v-1c0-1.662-1.338-3-3-3h-38z" style="fill:#ffffff;opacity:.1"/>
 <circle cx="48" cy="45" r="16" style="fill-rule:evenodd;fill:#309dc0"/>
 <path d="m48 39c-1.93854 0.01824-3.889525 0.444657-5.578125 1.363281-0.67302 0.420809-1.480984 0.964123-2.089844 1.511719-0.958 0.900403-1.778031 1.950093-2.332031 3.126953 1.51868 3.215921 4.856497 5.573616 8.529297 5.921875 2.4092 0.261789 4.931028-0.138846 7.048828-1.283203 0.673-0.42081 1.480984-0.964124 2.089844-1.511719 0.958-0.902324 1.778031-1.952013 2.332031-3.126953-1.518-3.215729-4.857297-5.574385-8.529297-5.921875-0.488-0.055671-0.980703-0.080078-1.470703-0.080078zm0.003906 2c2.139701-0.0474 4.034404 1.867622 3.994141 3.996094 0.06857 2.352447-2.274639 4.382659-4.591797 3.943359-2.340165-0.274787-3.984532-2.901019-3.214844-5.125 0.492105-1.636188 2.099539-2.831673 3.814453-2.8125l-0.001953-0.001953zm-0.003906 2a1.9999991 1.9988492 0 0 0 -2 2.001953 1.9999991 1.9988492 0 0 0 2 1.998047 1.9999991 1.9988492 0 0 0 2 -1.998047 1.9999991 1.9988492 0 0 0 -2 -1.992187v-0.009766z" style="fill-rule:evenodd;fill:#ffffff"/>
 <path d="M 32.025391,45.5 A 16,16.001894 0 0 0 32,45.998106 16,16.001894 0 0 0 48,62 16,16.001894 0 0 0 64,45.998106 16,16.001894 0 0 0 63.982422,45.50586 16,16.001894 0 0 1 48,60.999882 16,16.001894 0 0 1 32.025391,45.5 Z" style="fill-rule:evenodd;opacity:.2"/>
</svg>

<svg xmlns="http://www.w3.org/2000/svg" width="64" height="64" version="1">
 <path style="fill:#cccccc" d="M 54,56 54,6 C 54,4.338 52.662,3 51,3 L 13,3 c -1.662,0 -3,1.338 -3,3 l 0,50 c 0,1.662 1.338,3 3,3 l 38,0 c 1.662,0 3,-1.338 3,-3 z"/>
 <path style="opacity:0.2" d="m 10,56 0,1 c 0,1.662 1.338,3 3,3 l 38,0 c 1.662,0 3,-1.338 3,-3 l 0,-1 c 0,1.662 -1.338,3 -3,3 l -38,0 c -1.662,0 -3,-1.338 -3,-3 z"/>
 <path style="opacity:0.1;fill:#ffffff" d="M 13 3 C 11.338 3 10 4.338 10 6 L 10 7 C 10 5.338 11.338 4 13 4 L 51 4 C 52.662 4 54 5.338 54 7 L 54 6 C 54 4.338 52.662 3 51 3 L 13 3 z"/>
 <circle style="fill:#309dc0;fill-rule:evenodd" cx="48" cy="45" r="16"/>
 <path style="fill:#ffffff;fill-rule:evenodd" d="M 48 39 C 46.06146 39.01824 44.110475 39.444657 42.421875 40.363281 C 41.748855 40.78409 40.940891 41.327404 40.332031 41.875 C 39.374031 42.775403 38.554 43.825093 38 45.001953 C 39.51868 48.217874 42.856497 50.575569 46.529297 50.923828 C 48.938497 51.185617 51.460325 50.784982 53.578125 49.640625 C 54.251125 49.219815 55.059109 48.676501 55.667969 48.128906 C 56.625969 47.226582 57.446 46.176893 58 45.001953 C 56.482 41.786224 53.142703 39.427568 49.470703 39.080078 C 48.982703 39.024407 48.49 39 48 39 z M 48.003906 41 C 50.143607 40.9526 52.03831 42.867622 51.998047 44.996094 C 52.066617 47.348541 49.723408 49.378753 47.40625 48.939453 C 45.066085 48.664666 43.421718 46.038434 44.191406 43.814453 C 44.683511 42.178265 46.290945 40.98278 48.005859 41.001953 L 48.003906 41 z M 48 43 A 1.9999991 1.9988492 0 0 0 46 45.001953 A 1.9999991 1.9988492 0 0 0 48 47 A 1.9999991 1.9988492 0 0 0 50 45.001953 A 1.9999991 1.9988492 0 0 0 48 43.009766 L 48 43 z"/>
 <path style="opacity:0.2;fill-rule:evenodd" d="M 32.025391,45.5 A 16,16.001894 0 0 0 32,45.998106 16,16.001894 0 0 0 48,62 16,16.001894 0 0 0 64,45.998106 16,16.001894 0 0 0 63.982422,45.50586 16,16.001894 0 0 1 48,60.999882 16,16.001894 0 0 1 32.025391,45.5 Z"/>
</svg>
